src/assets/images/ranks/solo_silver_1.svg

<svg height="240" viewBox="0 0 160 240" width="160" xmlns="http://www.w3.org/2000/svg"><g fill="none" fill-rule="evenodd"><g transform="translate(11 43)"><g fill="#4d5758"><path d="m40 120h58v36l-29 19.440402-29-19.440402z"/><path d="m18 11.2148438c12-7.47656255 28.8333333-11.2148438 50.5-11.2148438s38.5 3.73828125 50.5 11.2148438l-10 43h-81z"/><path d="m68.8908968 20c25.600235 0 47.6341012 15.269441 57.4908632 37.197588-11.462965 2.7131966-19.990863 13.0119056-19.990863 25.302412 0 12.4329687 8.726741 22.827698 20.389042 25.393004-9.649112 22.414355-31.9364707 38.106996-57.8890422 38.106996-25.9525714 0-48.2399303-15.692641-57.8908968-38.106742 11.6643633-2.565808 20.3908968-12.9604375 20.3908968-25.393258 0-12.2903603-8.5276951-22.5889706-19.988903-25.3016488 9.8548021-21.9289102 31.8886681-37.1983512 57.488903-37.1983512z"/></g><path d="m68.3351398 26c21.1726207 0 39.6008872 11.7499764 49.1197402 29.0848696-10.138572 4.9573739-17.11974 15.3709825-17.11974 27.4151304 0 11.8699145 6.780647 22.156124 16.679821 27.196509-9.636799 16.906127-27.8273116 28.303491-48.6798212 28.303491-21.0194875 0-39.3341751-11.580625-48.9118065-28.709619 9.4804193-5.172165 15.9118065-15.2302074 15.9118065-26.790381 0-11.7318989-6.6238817-21.9167073-16.3357878-27.0185679 9.4538262-17.551455 28.0016093-29.4814321 49.3357878-29.4814321z" fill="#000" opacity=".446382"/><path d="m68 14.001 4.4994591 13.7764655c-1.6306064 1.9576392-2.6457932 3.485019-3.0455603 4.5821393l-.0580068.169654c-.352617 1.1071893-.352617 2.7715765 0 4.9931618l-.000892 7.4255794.2873797-.0162726c2.0238579-.128669 3.8381844-.3544567 5.4429796-.6773632 1.7831057-.358785 4.151149-1.1109064 7.1041297-2.2563642 4.1065099.0867525 7.3713137.69261 9.7944114 1.8175725.6692838-1.1800347 1.0542752-2.1809234 1.1545281-3.0033729.1409105-1.1559933-.1491113-3.0389828-.8700654-5.6489683l9.9966469-10.5431017-1.650764 14.4348506c-2.4627855 1.1253836-4.0916616 2.1135763-4.8866283 2.9645782-.597864.6400058-1.1439555 1.6518972-1.6382746 3.0356743 2.2797758 1.6278797 5.057731 4.4209159 8.3335669 8.3807158 7.890819 10.0206797 14.02146 16.6544957 18.391924 19.9014483 4.370465 3.2469525 10.08552 5.4136696 17.145166 6.5001514-7.477569.3740744-12.80221.0940661-15.973924-.8400248l-43.502076-.0005234-8.185 17.553 11.5301482 24.727669 10.9709365 12.379082-.140617 14.22656-10.9885641-9.036938-2.4309445-16.361345-9.8849591-21.197028.000892 20.021248 4.604108 15.855091-6 12.831661-6-12.831661 4.604108-15.855091-.000108-16.750248-8.3580471 17.926028-2.4309446 16.361345-10.9885641 9.036938-.140617-14.22656 10.9709365-12.379082 10.9472363-23.478669v-2.496l-7.603-16.306-43.0270762.0005234c-3.171714.9340909-8.49635522 1.2140992-15.9739238.8400248 7.05964632-1.0864818 12.7747015-3.2531989 17.1451655-6.5001514 4.3704641-3.2469526 10.5011054-9.8807686 18.3919241-19.9014483 3.0974713-3.7441939 5.7498033-6.4452226 7.956996-8.1030862-.5202414-1.5267215-1.0986138-2.6312135-1.7357913-3.3133039-.7949668-.8510019-2.4238428-1.8391946-4.8866281-2.9645782l-1.6507639-14.4348506 9.9966465 10.5431017c-.720954 2.6099855-1.0109758 4.492975-.8700654 5.6489683.1053106.8639408.5248134 1.9247789 1.2585086 3.1825143 2.4571948-1.2399372 5.8452694-1.9054671 10.164519-1.9967139 2.9529807 1.1454578 5.321024 1.8975792 7.1041297 2.2563642 1.1374309.2288664 2.3801208.4089448 3.7280699.5402351l.0013974-7.2721787c.352617-2.2215853.352617-3.8859725 0-4.9931618-.3526169-1.1071893-1.3871393-2.6911204-3.1035671-4.7517933l4.4984591-13.7764655zm7.372 64.996h-5.977v12.817zm-8.768 0h-4.451l4.451 9.545zm-22.2228896-25.5610515c-.0744489.0559074-.1484681.1112778-.222199.1662691l-.220469.1639946-.2195867.1626675c-.0365714.0270534-.0731413.0540908-.1097275.0811323l-.2198528.1624534c-3.3416722 2.4693816-7.1101683 5.2981641-24.6140329 23.3609891-.1579436.1629874-.3424964.3178907-.5536581.4647098l40.3124156-.0011643-12.128815-26.0137725c-.6543994.4465823-1.329091.9308226-2.0240746 1.452721zm11.3894006-5.4233734c-1.8943051.0369219-4.2050624.8466938-6.9322719 2.4293156l12.8487609 27.5551093h4.917v-28.165zm26.458978 0-12.834489 2.1564249v27.828h6.443l12.9496147-27.7688496c-2.5650189-1.4418287-4.7510608-2.1803538-6.5581257-2.2155753zm9.0055454 3.7275537-12.2440344 26.2568712 40.787416.0011643c-.211162-.1468191-.395715-.3017224-.553659-.4647098-17.503864-18.062825-21.2723602-20.8916075-24.6140324-23.3609891l-.2198528-.1624534c-.0365862-.0270415-.0731561-.0540789-.1097275-.0811323l-.2195867-.1626675-.220469-.1639946c-.0737309-.0549913-.1477501-.1103617-.222199-.1662691-.8230802-.6180926-1.6176986-1.1833658-2.3838552-1.6958197z" fill="#d8d8d8"/></g><path d="m15 0 15 21-15 21-15-21z" fill="#d8d8d8" transform="translate(65 8)"/></g></svg>

<?xml version="1.0" encoding="UTF-8"?>
<svg width="160px" height="240px" viewBox="0 0 160 240" version="1.1" xmlns="http://www.w3.org/2000/svg" xmlns:xlink="http://www.w3.org/1999/xlink">
    <title>solo_silver_1</title>
    <g id="solo_silver_1" stroke="none" stroke-width="1" fill="none" fill-rule="evenodd">
        <g id="Group-9" transform="translate(11.000000, 43.000000)">
            <polygon id="Rectangle-Copy-72" fill="#4D5758" points="40 120 98 120 98 156 69 175.440402 40 156"></polygon>
            <path d="M18,11.2148438 C30,3.73828125 46.8333333,0 68.5,0 C90.1666667,0 107,3.73828125 119,11.2148438 L109,54.2148438 L28,54.2148438 L18,11.2148438 Z" id="Rectangle-Copy-77" fill="#4D5758"></path>
            <path d="M68.8908968,20 C94.4911318,20 116.524998,35.269441 126.38176,57.197588 C114.918795,59.9107846 106.390897,70.2094936 106.390897,82.5 C106.390897,94.9329687 115.117638,105.327698 126.779939,107.893004 C117.130827,130.307359 94.8434683,146 68.8908968,146 C42.9383254,146 20.6509665,130.307359 11,107.893258 C22.6643633,105.32745 31.3908968,94.9328205 31.3908968,82.5 C31.3908968,70.2096397 22.8632017,59.9110294 11.4019938,57.1983512 C21.2567959,35.269441 43.2906619,20 68.8908968,20 Z" id="Combined-Shape-Copy-23" fill="#4D5758"></path>
            <path d="M68.3351398,26 C89.5077605,26 107.936027,37.7499764 117.45488,55.0848696 C107.316308,60.0422435 100.33514,70.4558521 100.33514,82.5 C100.33514,94.3699145 107.115787,104.656124 117.014961,109.696509 C107.378162,126.602636 89.1876494,138 68.3351398,138 C47.3156523,138 29.0009647,126.419375 19.4233333,109.290381 C28.9037526,104.118216 35.3351398,94.0601736 35.3351398,82.5 C35.3351398,70.7681011 28.7112581,60.5832927 18.999352,55.4814321 C28.4531782,37.9299771 47.0009613,26 68.3351398,26 Z" id="Combined-Shape-Copy-24" fill="#000000" opacity="0.446382068"></path>
            <path d="M68,14.001 L72.4994591,27.7774655 C70.8688527,29.7351047 69.8536659,31.2624845 69.4538988,32.3596048 L69.395892,32.5292588 C69.043275,33.6364481 69.043275,35.3008353 69.395892,37.5224206 L69.395,44.948 L69.6823797,44.9317274 C71.7062376,44.8030584 73.5205641,44.5772707 75.1253593,44.2543642 C76.908465,43.8955792 79.2765083,43.1434578 82.229489,41.998 C86.3359989,42.0847525 89.6008027,42.69061 92.0239004,43.8155725 C92.6931842,42.6355378 93.0781756,41.6346491 93.1784285,40.8121996 C93.319339,39.6562063 93.0293172,37.7732168 92.3083631,35.1632313 L102.30501,24.6201296 L100.654246,39.0549802 C98.1914605,40.1803638 96.5625844,41.1685565 95.7676177,42.0195584 C95.1697537,42.6595642 94.6236622,43.6714556 94.1293431,45.0552327 C96.4091189,46.6831124 99.1870741,49.4761486 102.46291,53.4359485 C110.353729,63.4566282 116.48437,70.0904442 120.854834,73.3373968 C125.225299,76.5843493 130.940354,78.7510664 138,79.8375482 C130.522431,80.2116226 125.19779,79.9316143 122.026076,78.9975234 L78.524,78.997 L70.339,96.55 L81.8691482,121.277669 L92.8400847,133.656751 L92.6994677,147.883311 L81.7109036,138.846373 L79.2799591,122.485028 L69.395,101.288 L69.395892,121.309248 L74,137.164339 L68,149.996 L62,137.164339 L66.604108,121.309248 L66.604,104.559 L58.2459529,122.485028 L55.8150083,138.846373 L44.8264442,147.883311 L44.6858272,133.656751 L55.6567637,121.277669 L66.604,97.799 L66.604,95.303 L59.001,78.997 L15.9739238,78.9975234 C12.8022098,79.9316143 7.47756858,80.2116226 0,79.8375482 C7.05964632,78.7510664 12.7747015,76.5843493 17.1451655,73.3373968 C21.5156296,70.0904442 27.6462709,63.4566282 35.5370896,53.4359485 C38.6345609,49.6917546 41.2868929,46.9907259 43.4940856,45.3328623 C42.9738442,43.8061408 42.3954718,42.7016488 41.7582943,42.0195584 C40.9633275,41.1685565 39.3344515,40.1803638 36.8716662,39.0549802 L35.2209023,24.6201296 L45.2175488,35.1632313 C44.4965948,37.7732168 44.206573,39.6562063 44.3474834,40.8121996 C44.452794,41.6761404 44.8722968,42.7369785 45.605992,43.9947139 C48.0631868,42.7547767 51.4512614,42.0892468 55.770511,41.998 C58.7234917,43.1434578 61.091535,43.8955792 62.8746407,44.2543642 C64.0120716,44.4832306 65.2547615,44.663309 66.6027106,44.7945993 L66.604108,37.5224206 C66.956725,35.3008353 66.956725,33.6364481 66.604108,32.5292588 C66.2514911,31.4220695 65.2169687,29.8381384 63.5005409,27.7774655 L67.999,14.001 Z M75.372,78.997 L69.395,78.997 L69.395,91.814 L75.372,78.997 Z M66.604,78.997 L62.153,78.997 L66.604,88.542 L66.604,78.997 Z M44.3811104,53.4359485 C44.3066615,53.4918559 44.2326423,53.5472263 44.1589114,53.6022176 L43.9384424,53.7662122 L43.7188557,53.9288797 C43.6822843,53.9559331 43.6457144,53.9829705 43.6091282,54.010012 L43.3892754,54.1724654 C40.0476032,56.641847 36.2791071,59.4706295 18.7752425,77.5334545 C18.6172989,77.6964419 18.4327461,77.8513452 18.2215844,77.9981643 L58.534,77.997 L46.405185,51.9832275 C45.7507856,52.4298098 45.076094,52.9140501 44.3811104,53.4359485 Z M55.770511,48.0125751 C53.8762059,48.049497 51.5654486,48.8592689 48.8382391,50.4418907 L61.687,77.997 L66.604,77.997 L66.604,49.832 L55.770511,48.0125751 Z M82.229489,48.0125751 L69.395,50.169 L69.395,77.997 L75.838,77.997 L88.7876147,50.2281504 C86.2225958,48.7863217 84.0365539,48.0477966 82.229489,48.0125751 Z M91.2350344,51.7401288 L78.991,77.997 L119.778416,77.9981643 C119.567254,77.8513452 119.382701,77.6964419 119.224757,77.5334545 C101.720893,59.4706295 97.9523968,56.641847 94.6107246,54.1724654 L94.3908718,54.010012 C94.3542856,53.9829705 94.3177157,53.9559331 94.2811443,53.9288797 L94.0615576,53.7662122 L93.8410886,53.6022176 C93.7673577,53.5472263 93.6933385,53.4918559 93.6188896,53.4359485 C92.7958094,52.8178559 92.001191,52.2525827 91.2350344,51.7401288 Z" id="Combined-Shape" fill="#D8D8D8"></path>
        </g>
        <g id="Group-3-Copy-11" transform="translate(65.000000, 8.000000)" fill="#D8D8D8">
            <polygon id="Polygon-Copy-47" points="15 0 30 21 15 42 0 21"></polygon>
        </g>
    </g>
</svg>
